svgs/sharp-regular/diagram-previous.svg

<svg xmlns="http://www.w3.org/2000/svg" viewBox="0 0 512 512"><!--! Font Awesome Pro 6.6.0 by @fontawesome - https://fontawesome.com License - https://fontawesome.com/license (Commercial License) Copyright 2024 Fonticons, Inc. --><path d="M464 336L48 336l0 96 416 0 0-96zm48-48l0 48 0 96 0 48-48 0L48 480 0 480l0-48 0-96 0-48 48 0 184 0 0-86.1-23 23-17 17L158.1 208l17-17 64-64 17-17 17 17 64 64 17 17L320 241.9l-17-17-23-23 0 86.1 184 0 48 0zM96.8 224L0 224 0 32l512 0 0 192-96.8 0-39.6-39.6-80-80L256 64.8l-39.6 39.6-80 80L96.8 224z"/></svg>

<svg xmlns="http://www.w3.org/2000/svg" viewBox="0 0 512 512"><!--! Font Awesome Pro 6.4.2 by @fontawesome - https://fontawesome.com License - https://fontawesome.com/license (Commercial License) Copyright 2023 Fonticons, Inc. --><path d="M464 336L48 336l0 96 416 0V336zm48-48v48 96 48H464 48 0V432 336 288H48 232V201.9l-23 23-17 17L158.1 208l17-17 64-64 17-17 17 17 64 64 17 17L320 241.9l-17-17-23-23V288H464h48zM96.8 224L0 224V32l512 0V224H415.2l-39.6-39.6-80-80L256 64.8l-39.6 39.6-80 80L96.8 224z"/></svg>
